public/images/snake/head/bendr.svg

<svg id="root" viewBox="0 0 100 100" xmlns="http://www.w3.org/2000/svg">
    <path d="M25.91 21.49a3.65 3.65 0 0 1 .58.05 9.64 9.64 0 1 0 0 13.8 3.65 3.65 0 0 1-.58.05c-2.75 0-4.9-3.05-4.9-6.95s2.15-6.95 4.9-6.95z"/>
    <path d="M100 43.78v-8.7a35 35 0 0 0-35-35L0 0v100h65.6c18.49 0 33-10.34 34.23-28.5h-7.24V43.78zm-80.22-2.7a12.64 12.64 0 1 1 12.63-12.64 12.65 12.65 0 0 1-12.63 12.64zM50 57.64a13.85 13.85 0 0 1 10.33-13.39V71A13.85 13.85 0 0 1 50 57.64zM64.6 71.5V43.78h9.74V71.5zm23.73 0h-9.74V43.78h9.74z"/>
</svg>

<svg id="root" viewBox="0 0 100 100" xmlns="http://www.w3.org/2000/svg" xmlns:xlink= "http://www.w3.org/1999/xlink">
  <path d="M25.91,21.49a3.65,3.65,0,0,1,.58.05,9.64,9.64,0,1,0,0,13.8,3.65,3.65,0,0,1-.58.05c-2.75,0-4.9-3.05-4.9-6.95S23.16,21.49,25.91,21.49Z"/>
  <path d="M100,43.78v-8.7a35,35,0,0,0-35-35L0,0V100H65.6c18.49,0,33-10.34,34.23-28.5H92.59V43.78Zm-80.22-2.7A12.64,12.64,0,1,1,32.41,28.44,12.65,12.65,0,0,1,19.78,41.08ZM50,57.64A13.85,13.85,0,0,1,60.33,44.25V71A13.85,13.85,0,0,1,50,57.64ZM64.6,71.5V43.78h9.74V71.5Zm23.73,0H78.59V43.78h9.74Z"/>
</svg>
